app/dist/common/images/leifheit-ag.svg

<svg height="18" viewBox="0 0 18 18" width="18" xmlns="http://www.w3.org/2000/svg"><path d="m0 0h18v18h-18z" fill="#f0f3fa"/><path d="m5.54 5.81c0-.7.56-1.26 1.25-1.26h4.42c.7 0 1.25.56 1.25 1.26v6.38c0 .7-.56 1.26-1.25 1.26h-4.41c-.7 0-1.25-.56-1.25-1.26v-6.39zm1.25 8.19h4.42c1 0 1.79-.8 1.79-1.81v-6.39c0-1-.8-1.81-1.79-1.81h-4.41c-.98.01-1.8.84-1.8 1.82v6.38c0 1 .8 1.81 1.79 1.81zm.21-2h4.5v-1h-1.5v-5h-3z" fill="#d1012d"/></svg>

<!-- by TradingView --><svg width="18" height="18" viewBox="0 0 18 18" xmlns="http://www.w3.org/2000/svg"><path fill="#F0F3FA" d="M0 0h18v18H0z"/><path d="M5.54 5.81c0-.7.56-1.26 1.25-1.26h4.42c.7 0 1.25.56 1.25 1.26v6.38c0 .7-.56 1.26-1.25 1.26H6.8c-.7 0-1.25-.56-1.25-1.26V5.8ZM6.79 14h4.42c1 0 1.79-.8 1.79-1.81V5.8c0-1-.8-1.81-1.79-1.81H6.8C5.82 4 5 4.83 5 5.81v6.38c0 1 .8 1.81 1.79 1.81ZM7 12h4.5v-1H10V6H7v6Z" fill="#D1012D"/></svg>
